X:1
T:Title
%%score { ( 1 4 ) | ( 2 3 ) }
L:1/8
Q:1/4=100
M:4/4
K:G
V:1 treble nm="Grand Piano"
V:4 treble 
V:2 bass 
V:3 bass 
V:1
 B2 G>E D2 DD | EF[CEG][CEA] [DB]2 [Gd]2 | [Fc]2 [FA]>F D2 DD | DGAB [FA]4 | B2 G>E D2 DD | %5
w: O.~F.~Pugh * * * * *|||||
 [B,DG]2 [DG][DGB] [Gd]4 | [Ge]2 [Ec][EA] G2 FG | [GB]2 [GB]>[FA] G4 | d6 z2 | %9
w: ||||
 [B,d]2- [B,-Gd-]>[B,-Gd-] [B,Gd]2 =f>f | e2- [Ge-]>[Ge-] [Ge]2 [Ge]>[G^d] | %11
w: ||
 d2- [Fd-]>[Fd-] [Fd]2 z2 | d2 B>c d2 dd | [Ge]2 [Ge][Ge] d4 | d2 BG D2 DD | E2 E[CEG] [B,D]4 | %16
w: |||||
 [B,D]EF[EG] [FA][GB][Ac][FA] | [Fd]2 F>F G4 |] %18
w: ||
V:2
 [G,D]2 [G,B,]>[G,C] [G,B,]2 [G,B,][G,B,] | CDC,C, z2 B,2 | %2
 [D,A,]2 [D,D]>[D,CD] [G,B,]2 [G,B,][G,B,] | B,[B,D][F,D][G,DG] [D,D]4 | %4
 [G,D]2 [G,B,]>[G,C] [G,B,]2 [G,B,][G,B,] | G,,2 B,,D, [G,B,]4 | %6
 [C,C]2 [C,A,][C,C] [D,B,D]2 [D,A,D][D,B,D] | [D,D]2 [D,D]>[D,C] [G,B,]4 | [G,G]2 z2 z4 | %9
 G,,2 B,,>D, G,2 D>D | C6 z2 | [D,A,]2 [F,D]>[A,D] D2 z2 | [G,B,G]2 [G,G]>[G,A,G] [G,B,G]2 GG | %13
 [C,C]2 [C,C][C,C][K:treble] [G,B,G]4 | D2[K:bass] B,G, D,2 [B,,G,][B,,G,] | %15
 [C,G,C]2 [C,G,C]C, G,4 | z C[D,CD][D,D] [D,D]2 [D,D][D,D] | [D,C]2 [D,A,D]>[D,CD] [G,B,D]4 |] %18
V:3
 x8 | [C,G,]2 z2 G,4 | x8 | G,2 z2 z4 | x8 | x8 | x8 | x8 | B,2- [G,B,-]>[G,B,-] [G,B,]2 D>C | x8 | %10
 C,2 C,>C, C,2 [C,C]>[C,C] | x8 | z4 z2 [G,B,]2 | x4[K:treble] x4 | x2[K:bass] x6 | x8 | %16
 G,2 z2 z4 | x8 |] %18
V:4
 x8 | x8 | x8 | x8 | x8 | x8 | x8 | x8 | z2 G>G G2 B>e | G2 z2 z4 | G2 z2 z4 | F2 z2 z4 | x8 | x8 | %14
 x8 | x8 | x8 | x8 |] %18

